_assets/img/icons/web-ext.svg

<svg xmlns="http://www.w3.org/2000/svg" xmlns:xlink="http://www.w3.org/1999/xlink" width="24" height="24" viewBox="0 0 24 24">
  <defs>
    <path id="web-ext-a" d="M6,4 L18,4 C19.1045695,4 20,4.8954305 20,6 L20,18 C20,19.1045695 19.1045695,20 18,20 L6,20 C4.8954305,20 4,19.1045695 4,18 L4,6 C4,4.8954305 4.8954305,4 6,4 Z M16.9998732,17 C17.0050975,17 17.0103217,16.9999584 17.0155453,16.9998752 C17.5591057,16.9912198 17.9927319,16.5435604 17.9840764,16 C17.9752414,15.4451583 17.5229381,15 16.9680261,15 L14,15 C13.4477153,15 13,15.4477153 13,16 C13,16.5522847 13.4477153,17 14,17 L16.9998732,17 Z M10.0710678,11.9497475 L7.24264069,14.7781746 C6.8521164,15.1686989 6.8521164,15.8018639 7.24264069,16.1923882 C7.63316498,16.5829124 8.26632996,16.5829124 8.65685425,16.1923882 L12.1923882,12.6568542 C12.5829124,12.26633 12.5829124,11.633165 12.1923882,11.2426407 L8.65685425,7.70710678 C8.26632996,7.31658249 7.63316498,7.31658249 7.24264069,7.70710678 C6.8521164,8.09763107 6.8521164,8.73079605 7.24264069,9.12132034 L10.0710678,11.9497475 Z"/>
  </defs>
  <g fill="none" fill-rule="evenodd">
    <mask id="web-ext-b" fill="#fff">
      <use xlink:href="#web-ext-a"/>
    </mask>
    <use fill="#0060DF" fill-rule="nonzero" xlink:href="#web-ext-a"/>
    <g fill="#0060DF" fill-rule="nonzero" mask="url(#web-ext-b)">
      <rect width="24" height="24"/>
    </g>
  </g>
</svg>

<svg id="Layer_1" data-name="Layer 1" xmlns="http://www.w3.org/2000/svg" width="24" height="24" viewBox="0 0 24 24">
  <title>web-ext</title>
  <path d="M6,4H18a2,2,0,0,1,2,2V18a2,2,0,0,1-2,2H6a2,2,0,0,1-2-2V6A2,2,0,0,1,6,4ZM17,17h0a1,1,0,0,0,1-1,1,1,0,0,0-1-1H14a1,1,0,0,0,0,2ZM10.07,12,7.24,14.78a1,1,0,0,0,0,1.41,1,1,0,0,0,1.42,0l3.53-3.53a1,1,0,0,0,0-1.42L8.66,7.71a1,1,0,0,0-1.42,0,1,1,0,0,0,0,1.41Z"/>
</svg>
